X: 25535
T: Marian's Favourite
R: reel
M: 4/4
K: Gmajor
Bdde dBGB|AcBA GEED|Bdde dG (3Bcd|gedB ABGA|
Bdde dBGB|AcBA GE~E2|DEGA (3Bcd ge|1 dBAB G3A:|2 dBAB G2Bd||
|:~g3a gedg|egdg edBd|~g3a gedB|AcBA GEDf|
~g3a gedg|egdg edBA|G2 (3Bcd gedB|1 AGAB G2Bd:|2 AGAB G3A||

